X:17
T:Joe Bane's Fling
R:fling
H:see also reel#562
D:Martin Hayes
Z:id:hn-hf-17
M:C|
K:G
B2~B2 BAGA|BABc dedc|B2~B2 BAGB|1 d2cA AGGA:|2 d2cA AGG2||
e2a2 g3e|d2Bc d2d2|e2a2 g3e|d2cA AGG2|
e2a2 g2e2|d2e2 f2g2|abaf g2ge|d2cA AGGA||
<end>
<start>
